X:1
T: Bonny Breast Knot, The
M: C|
L: 1/8
K: Gmaj
|: dc | "G"B2 G2 G2 AB | "Am"cBAG "D"F2 D2 | "G"G2 B2 G2 B2 | G2 B2 "D"d3 c || 
        "G"B2 G2 G2 AB | "Am"cBAG "D"F2 D2 | "G"G2 B2 "D"A2 dc | "G"B2 G2 G2 :|
|: Bc | "G"d4 "D"d3 e | dcBA "G"G2 B2 | "Am"AGAB cBcd | e2 A2 A2 Bc || 
        "D"d2 d2 d3 e | dcBA "G"G2 B2 | "Am"A2 c2 D2 EF | G2 B2 G2 :|
